Modules/BetterCms.Module.Root/Scss/assets/icons/editor-h2.svg

<svg height="11" width="20" xmlns="http://www.w3.org/2000/svg" viewBox="0 0 20 11"><path fill="#303646" fill-rule="evenodd" d="m.5 11h1.95v-4.57h5.3v4.57h1.95v-10.85h-1.95v4.51h-5.3v-4.51h-1.95v10.85m11.4 0h8.03v-1.67h-5.28l2.28-1.86c1.97-1.57 2.89-2.5 2.89-4.2v-.03c0-1.94-1.49-3.24-3.66-3.24-1.99 0-3.03.82-4.1 2.26l1.4 1.07c.84-1.08 1.54-1.63 2.55-1.63 1.02 0 1.79.62 1.79 1.69 0 .98-.55 1.66-2.07 2.93l-3.83 3.18v1.5"/></svg>

<?xml version="1.0" encoding="utf-8"?>
<!-- Generator: Avocode 2.4.5 - http://avocode.com -->
<svg height="11" width="20" xmlns:xlink="http://www.w3.org/1999/xlink" xmlns="http://www.w3.org/2000/svg" viewBox="0 0 20 11">
    <path fill="#303646" fill-rule="evenodd" d="M 0.5 11 L 2.45 11 L 2.45 6.43 L 7.75 6.43 L 7.75 11 L 9.7 11 L 9.7 0.15 L 7.75 0.15 L 7.75 4.66 L 2.45 4.66 L 2.45 0.15 L 0.5 0.15 L 0.5 11 Z M 11.9 11 L 19.93 11 L 19.93 9.33 L 14.65 9.33 L 16.93 7.47 C 18.9 5.9 19.82 4.97 19.82 3.27 L 19.82 3.24 C 19.82 1.3 18.33 0 16.16 0 C 14.17 0 13.13 0.82 12.06 2.26 L 13.46 3.33 C 14.3 2.25 15 1.7 16.01 1.7 C 17.03 1.7 17.8 2.32 17.8 3.39 C 17.8 4.37 17.25 5.05 15.73 6.32 L 11.9 9.5 L 11.9 11 Z M 11.9 11" />
</svg>
